icons/barcode-fill.svg

<svg width="24" height="24" fill="none" xmlns="http://www.w3.org/2000/svg"><g clip-path="url(#a)"><path d="M2 4h2v16H2V4Zm4 0h2v16H6V4Zm3 0h3v16H9V4Zm4 0h2v16h-2V4Zm3 0h2v16h-2V4Zm3 0h3v16h-3V4Z" /></g><defs><clipPath id="a"><path fill="#fff" d="M0 0h24v24H0z"/></clipPath></defs></svg>

<svg xmlns="http://www.w3.org/2000/svg" width="24" height="24" fill="none"><g clip-path="url(#a)"><g><path fill="#121212" d="M2 4H4V20H2V4ZM6 4H8V20H6V4ZM9 4H12V20H9V4ZM13 4H15V20H13V4ZM16 4H18V20H16V4ZM19 4H22V20H19V4Z"/></g></g><defs><clipPath id="a"><rect width="24" height="24" fill="white"/></clipPath></defs></svg>
